packages/IcoMoon/src/NewTabIcon/index.svg

<svg version="1.1" xmlns="http://www.w3.org/2000/svg" width="16" height="16" viewBox="0 0 16 16">
<path d="M3 1v12h12v-12h-12zM14 12h-10v-10h10v10zM2 14v-10.5l-1-1v12.5h12.5l-1-1h-10.5z"></path>
<path d="M5.5 4l2.5 2.5-3 3 1.5 1.5 3-3 2.5 2.5v-6.5z"></path>
</svg>

<svg xmlns="http://www.w3.org/2000/svg" viewBox="0 0 16 16">
  <path d="M3 1v12h12V1H3zm11 11H4V2h10v10zM2 14V3.5l-1-1V15h12.5l-1-1H2z"/>
  <path d="M5.5 4L8 6.5l-3 3L6.5 11l3-3 2.5 2.5V4z"/>
</svg>
